dist/img/compass.svg

<svg width="40" height="40" viewBox="0 0 40 40" fill="currentColor" xmlns="http://www.w3.org/2000/svg">
<g clip-path="url(#clip0_79_121)">
<path d="M20 0C8.94609 0 0 8.94508 0 20C0 31.0539 8.94508 40 20 40C31.0539 40 40 31.0549 40 20C40 8.94609 31.0549 0 20 0ZM20 37.3334C10.4424 37.3334 2.66664 29.5577 2.66664 20C2.66664 10.4423 10.4424 2.66664 20 2.66664C29.5576 2.66664 37.3334 10.4424 37.3334 20C37.3334 29.5576 29.5576 37.3334 20 37.3334Z" fill="#303030"/>
<path d="M26.614 11.6066L16.9015 16.2776C16.6289 16.4086 16.4089 16.6286 16.2778 16.9013L11.6068 26.614C11.0622 27.7467 12.2532 28.9386 13.3863 28.3934L23.099 23.7225C23.3716 23.5914 23.5916 23.3715 23.7227 23.0987L28.3936 13.3861C28.9381 12.2536 27.7476 11.0614 26.614 11.6066ZM21.5219 21.5218L15.6586 24.3415L18.4784 18.4783L24.3417 15.6585L21.5219 21.5218Z" fill="#303030"/>
</g>
<defs>
<clipPath id="clip0_79_121">
<rect width="40" height="40" fill="white"/>
</clipPath>
</defs>
</svg>

<svg width="40" height="40" fill="currentColor" xmlns="http://www.w3.org/2000/svg"><g clip-path="url(#a)" fill="#303030"><path d="M20 0C8.946 0 0 8.945 0 20c0 11.054 8.945 20 20 20 11.054 0 20-8.945 20-20C40 8.946 31.055 0 20 0Zm0 37.333c-9.558 0-17.333-7.775-17.333-17.333 0-9.558 7.775-17.333 17.333-17.333 9.558 0 17.333 7.775 17.333 17.333 0 9.558-7.775 17.333-17.333 17.333Z"/><path d="m26.614 11.607-9.713 4.67a1.333 1.333 0 0 0-.623.624l-4.671 9.713c-.545 1.133.646 2.325 1.78 1.78l9.712-4.671c.273-.132.493-.351.624-.624l4.67-9.713c.545-1.132-.645-2.325-1.779-1.78Zm-5.092 9.915-5.863 2.82 2.82-5.864 5.863-2.82-2.82 5.864Z"/></g><defs><clipPath id="a"><path fill="#fff" d="M0 0h40v40H0z"/></clipPath></defs></svg>
